other/shazam.svg

<?xml version="1.0" encoding="UTF-8" standalone="no"?>
<svg
   xmlns:dc="http://purl.org/dc/elements/1.1/"
   xmlns:cc="http://creativecommons.org/ns#"
   xmlns:rdf="http://www.w3.org/1999/02/22-rdf-syntax-ns#"
   xmlns:svg="http://www.w3.org/2000/svg"
   xmlns="http://www.w3.org/2000/svg"
   xmlns:sodipodi="http://sodipodi.sourceforge.net/DTD/sodipodi-0.dtd"
   xmlns:inkscape="http://www.inkscape.org/namespaces/inkscape"
   width="48"
   height="48"
   viewBox="0 0 48 48"
   version="1.1"
   id="svg4545"
   sodipodi:docname="soundcloud.svg"
   inkscape:version="0.92.1 r">
  <metadata
     id="metadata4551">
    <rdf:RDF>
      <cc:Work
         rdf:about="">
        <dc:format>image/svg+xml</dc:format>
        <dc:type
           rdf:resource="http://purl.org/dc/dcmitype/StillImage" />
        <dc:title></dc:title>
      </cc:Work>
    </rdf:RDF>
  </metadata>
  <defs
     id="defs4549" />
  <sodipodi:namedview
     pagecolor="#ffffff"
     bordercolor="#666666"
     borderopacity="1"
     objecttolerance="10"
     gridtolerance="10"
     guidetolerance="10"
     inkscape:pageopacity="0"
     inkscape:pageshadow="2"
     inkscape:window-width="640"
     inkscape:window-height="480"
     id="namedview4547"
     showgrid="false"
     inkscape:pagecheckerboard="true"
     inkscape:showpageshadow="false"
     inkscape:object-paths="true"
     inkscape:snap-intersection-paths="true"
     inkscape:snap-smooth-nodes="true"
     inkscape:snap-midpoints="true"
     inkscape:snap-bbox="true"
     inkscape:bbox-paths="true"
     inkscape:bbox-nodes="true"
     inkscape:snap-bbox-edge-midpoints="true"
     inkscape:snap-bbox-midpoints="true"
     inkscape:snap-object-midpoints="true"
     inkscape:snap-center="true"
     inkscape:snap-text-baseline="true"
     inkscape:zoom="5.7010484"
     inkscape:cx="27.730411"
     inkscape:cy="16.007867"
     inkscape:current-layer="svg4545" />
  <path
     d="M 24 2 A 22 22 0 0 0 2 24 A 22 22 0 0 0 24 46 A 22 22 0 0 0 46 24 A 22 22 0 0 0 24 2 z M 19.320312 8.5332031 A 3.2913504 3.2913504 0 0 1 21.048828 14.695312 L 17.318359 16.849609 C 14.771345 18.320131 13.924025 21.48229 15.394531 24.029297 C 16.865057 26.576307 20.025252 27.421689 22.572266 25.951172 L 26.302734 23.796875 A 3.2914339 3.2914339 0 0 1 29.59375 29.498047 L 25.863281 31.652344 C 20.235646 34.90146 12.942472 32.947947 9.6933594 27.320312 C 6.4442464 21.692681 8.3997038 14.399507 14.027344 11.150391 L 17.757812 8.9960938 A 3.2913504 3.2913504 0 0 1 19.320312 8.5332031 z M 27.724609 14.767578 C 31.925751 14.666847 36.070923 16.798971 38.304688 20.667969 C 41.553806 26.295602 39.60029 33.588775 33.972656 36.837891 L 30.240234 38.992188 A 3.2913504 3.2913504 0 1 1 26.949219 33.292969 L 30.681641 31.136719 C 33.228649 29.666203 34.075984 26.505992 32.605469 23.958984 C 31.134952 21.411976 27.974743 20.566593 25.427734 22.037109 L 21.695312 24.191406 A 3.2914339 3.2914339 0 1 1 18.404297 18.490234 L 22.136719 16.335938 C 23.895355 15.320588 25.814999 14.813368 27.724609 14.767578 z "
     id="circle4543"
     style="fill:#ffffff;fill-opacity:1;stroke:none" />
</svg>

<?xml version="1.0" encoding="UTF-8"?>
<svg version="1.1" viewBox="0 0 48 48" xmlns="http://www.w3.org/2000/svg">
    <path d="m24 2a22 22 0 0 0 -22 22 22 22 0 0 0 22 22 22 22 0 0 0 22 -22 22 22 0 0 0 -22 -22zm-4.6797 6.5332a3.2914 3.2914 0 0 1 1.7285 6.1621l-3.7305 2.1543c-2.547 1.4705-3.3943 4.6327-1.9238 7.1797 1.4705 2.547 4.6307 3.3924 7.1777 1.9219l3.7305-2.1543a3.2914 3.2914 0 0 1 3.291 5.7012l-3.7305 2.1543c-5.6276 3.2491-12.921 1.2956-16.17-4.332-3.2491-5.6276-1.2937-12.921 4.334-16.17l3.7305-2.1543a3.2914 3.2914 0 0 1 1.5625 -0.46289zm8.4043 6.2344c4.2011-0.10073 8.3463 2.0314 10.58 5.9004 3.2491 5.6276 1.2956 12.921-4.332 16.17l-3.7324 2.1543a3.2914 3.2914 0 1 1 -3.291 -5.6992l3.7324-2.1562c2.547-1.4705 3.3943-4.6307 1.9238-7.1777-1.4705-2.547-4.6307-3.3924-7.1777-1.9219l-3.7324 2.1543a3.2914 3.2914 0 1 1 -3.291 -5.7012l3.7324-2.1543c1.7586-1.0154 3.6783-1.5226 5.5879-1.5684z" fill="#fff"/>
</svg>
